X: 1548
T: Corney is Coming
T: ta cro.tuir ag tea.cd.
R: reel
B: O'Neill's 1850 "Music of Ireland" #1548
O: J.O'Neill
Z: transcribed by John B. Walsh, walsh@math.ubc.ca 8/23/96
M: C|
L: 1/8
K: D
|: Addc dfed | ABcA EFGE | Dddc defg | afge [1 fdec :|2 (fd)d2 |]
|: defg adfd | cdef gedc | defg [1 adfd | gece (fd)d2 :|2 a2(gf) | gbag (fd)d2 |]
